packages/core/src/svgs/tokens/branded/AIRI.svg

<svg width="24" height="24" viewBox="0 0 24 24" fill="none" xmlns="http://www.w3.org/2000/svg">
<path d="M4.44117 13.1764C4.68973 14.7812 5.44194 16.2655 6.58915 17.4147C7.73637 18.5641 9.21922 19.319 10.8235 19.5706V22C8.57504 21.7351 6.48138 20.7204 4.88047 19.1194C3.27957 17.5186 2.26482 15.4249 2 13.1764H4.44117ZM10.8235 4.42941C9.21922 4.68092 7.73637 5.43586 6.58915 6.58519C5.44194 7.73452 4.68973 9.21875 4.44117 10.8235H2C2.26482 8.57504 3.27957 6.48138 4.88047 4.88047C6.48138 3.27957 8.57504 2.26481 10.8235 2V4.42941ZM19.5588 10.8235C19.0588 7.52941 16.4589 4.94116 13.1764 4.42941V2C15.4249 2.26481 17.5186 3.27957 19.1196 4.88047C20.7204 6.48138 21.7352 8.57504 22 10.8235H19.5588ZM13.1764 19.5706C16.4589 19.0588 19.0588 16.4646 19.5588 13.1764H22C21.7352 15.4249 20.7204 17.5186 19.1196 19.1194C17.5186 20.7204 15.4249 21.7351 13.1764 22V19.5706ZM10.2235 15.5294H6.65294L8.44116 12H11.7882L10.2294 9.27648L12 6.11764L17.3529 15.5294H13.8059L11.9 12.2059L10.2235 15.5294Z" fill="black"/>
</svg>

<svg xmlns="http://www.w3.org/2000/svg" width="24" height="24" fill="none" viewBox="0 0 24 24">
    <path fill="#000" d="M4.441 13.176a7.66 7.66 0 0 0 6.382 6.395V22A10.07 10.07 0 0 1 2 13.176zm6.382-8.747a7.66 7.66 0 0 0-6.382 6.394H2A10.07 10.07 0 0 1 10.824 2zm8.736 6.394a7.65 7.65 0 0 0-6.383-6.394V2A10.07 10.07 0 0 1 22 10.824zm-6.383 8.748a7.66 7.66 0 0 0 6.383-6.395H22A10.07 10.07 0 0 1 13.176 22zm-2.953-4.042h-3.57L8.44 12h3.347L10.23 9.276 12 6.118l5.353 9.411h-3.547L11.9 12.206z"/>
</svg>
